lg/gitkraken.svg

<svg viewBox="0 0 256 224" version="1.1" xmlns="http://www.w3.org/2000/svg" preserveAspectRatio="xMidYMid" height="1em" width="1em">
  <g>
    <path d="M247.775947,50.434484 C246.721582,47.6931331 243.558484,46.4278942 241.028007,47.4822599 C239.130148,48.3257525 237.864909,50.2236108 237.864909,52.1214691 C237.864909,52.7540886 237.864909,53.386708 238.286656,53.8084543 C243.136738,66.6717163 245.878089,80.5893439 245.878089,95.3504642 C245.878089,155.027565 201.383855,204.582754 143.604613,211.963314 L143.604613,156.925423 C147.189456,156.292804 150.563427,155.238438 153.937397,154.184072 L153.937397,200.365291 C200.962109,188.978141 236.177924,146.381766 236.177924,95.3504642 C236.177924,54.6519469 213.614498,19.0143851 180.29654,0.668421358 C177.766063,-0.807690669 174.602965,0.246675064 173.337727,2.98802597 C172.91598,3.62064541 172.91598,4.464138 172.91598,5.30763058 C172.91598,7.2054889 173.970346,8.89247408 175.446458,9.73596666 C205.601318,26.3949452 226.056013,58.6585367 226.056013,95.5613373 C226.056013,137.103347 200.329489,172.530036 163.848435,186.86941 L163.848435,145.960019 C170.174629,144.062161 174.813839,138.157713 174.813839,130.988026 C174.813839,125.083578 171.861614,120.233495 167.011532,117.492145 C170.596376,82.065456 186.833608,91.5547476 186.833608,80.1675976 L186.833608,73.6305301 C186.833608,56.7606784 147.822076,1.72278709 129.476112,0.457548211 L126.102142,0.457548211 C107.756178,1.72278709 68.7446458,56.7606784 68.7446458,73.6305301 L68.7446458,80.1675976 C68.7446458,91.3438744 84.7710049,82.065456 88.5667216,117.492145 C83.9275124,120.233495 80.9752883,125.294451 80.9752883,130.988026 C80.9752883,137.94684 85.6144975,143.851288 91.9406919,145.960019 L91.9406919,186.86941 C55.6705107,172.530036 29.7331137,137.103347 29.7331137,95.5613373 C29.7331137,58.6585367 50.1878089,26.3949452 80.3426689,9.73596666 C82.6622735,8.47072778 83.7166392,5.51850373 82.4514003,2.98802597 C81.8187809,1.09016765 79.9209226,0.0358019178 78.0230643,0.0358019178 C77.1795717,0.0358019178 76.3360791,0.246675064 75.4925865,0.668421358 C42.1746293,19.0143851 19.6112026,54.6519469 19.6112026,95.3504642 C19.6112026,146.381766 54.8270181,188.978141 102.273476,200.576164 L102.273476,154.394945 C105.647446,155.449311 109.021417,156.503677 112.60626,157.136296 L112.60626,212.174187 C54.8270181,204.582754 10.3327842,155.238438 10.3327842,95.3504642 C10.3327842,80.8002171 13.0741351,66.8825894 17.9242175,53.8084543 C18.9785832,51.2779765 17.7133443,48.3257525 15.1828666,47.2713868 C14.5502471,47.0605136 13.9176277,46.8496405 13.2850082,46.8496405 C11.1762768,46.8496405 9.27841845,48.1148793 8.43492586,50.2236108 C2.95222405,64.3521116 0,79.5349782 0,95.3504642 C0,164.305983 54.4052718,220.39824 122.728171,223.139591 L122.728171,158.401535 C124.62603,158.612408 128,158.612408 128,158.612408 C128,158.612408 131.37397,158.612408 133.271829,158.401535 L133.271829,223.139591 C201.594728,220.39824 256,164.305983 256,95.3504642 C255.789127,79.5349782 253.047776,64.3521116 247.775947,50.434484 L247.775947,50.434484 Z M151.617792,123.396593 C153.515651,121.498734 156.046129,120.233495 158.998353,120.233495 C161.950577,120.233495 164.481054,121.498734 166.378913,123.396593 C168.276771,125.294451 169.54201,127.824929 169.54201,130.777153 C169.54201,133.729377 168.276771,136.259855 166.378913,138.157713 C164.481054,140.055571 161.950577,141.32081 158.998353,141.32081 C156.046129,141.32081 153.515651,140.055571 151.617792,138.157713 C149.719934,136.259855 148.454695,133.729377 148.454695,130.777153 C148.454695,127.824929 149.719934,125.294451 151.617792,123.396593 L151.617792,123.396593 Z M104.382208,138.157713 C102.484349,140.055571 99.9538715,141.32081 97.0016474,141.32081 C94.0494234,141.32081 91.5189456,140.055571 89.6210873,138.157713 C87.5123558,136.259855 86.4579901,133.729377 86.4579901,130.777153 C86.4579901,127.824929 87.723229,125.294451 89.6210873,123.396593 C91.5189456,121.498734 94.0494234,120.233495 97.0016474,120.233495 C99.9538715,120.233495 102.484349,121.498734 104.382208,123.396593 C106.280066,125.294451 107.545305,127.824929 107.545305,130.777153 C107.334432,133.729377 106.280066,136.259855 104.382208,138.157713 L104.382208,138.157713 Z" fill="#128379"/>
  </g>
</svg>

<svg viewBox="0 0 256 224" xmlns="http://www.w3.org/2000/svg" preserveAspectRatio="xMidYMid" height="1em" width="1em">
  <path d="M247.776 50.434c-1.054-2.74-4.218-4.006-6.748-2.952-1.898.844-3.163 2.742-3.163 4.64 0 .632 0 1.265.422 1.686 4.85 12.864 7.591 26.781 7.591 41.542 0 59.678-44.494 109.233-102.273 116.613v-55.038c3.584-.632 6.958-1.687 10.332-2.74v46.18c47.025-11.387 82.24-53.983 82.24-105.015 0-40.698-22.563-76.336-55.88-94.682-2.53-1.476-5.694-.421-6.96 2.32-.421.633-.421 1.476-.421 2.32 0 1.897 1.054 3.584 2.53 4.428 30.155 16.659 50.61 48.923 50.61 85.825 0 41.542-25.727 76.969-62.208 91.308V145.96c6.327-1.898 10.966-7.802 10.966-14.972 0-5.904-2.952-10.755-7.802-13.496 3.584-35.427 19.822-25.937 19.822-37.324V73.63c0-16.87-39.012-71.908-57.358-73.173h-3.374C107.756 1.723 68.745 56.76 68.745 73.63v6.537c0 11.176 16.026 1.897 19.822 37.324-4.64 2.741-7.592 7.802-7.592 13.496 0 6.959 4.64 12.863 10.966 14.972v40.91c-36.27-14.34-62.208-49.767-62.208-91.309 0-36.902 20.455-69.166 50.61-85.825 2.32-1.265 3.374-4.217 2.108-6.748C81.82 1.09 79.921.036 78.023.036c-.843 0-1.687.21-2.53.632C42.175 19.014 19.61 54.652 19.61 95.35c0 51.032 35.216 93.628 82.662 105.226v-46.181c3.374 1.054 6.748 2.109 10.333 2.741v55.038C54.827 204.583 10.333 155.238 10.333 95.35c0-14.55 2.741-28.467 7.591-41.542 1.055-2.53-.21-5.482-2.741-6.537-.633-.21-1.265-.421-1.898-.421-2.109 0-4.007 1.265-4.85 3.374C2.952 64.352 0 79.535 0 95.35c0 68.956 54.405 125.048 122.728 127.79v-64.738c1.898.21 5.272.21 5.272.21s3.374 0 5.272-.21v64.738C201.595 220.398 256 164.306 256 95.35c-.21-15.815-2.952-30.998-8.224-44.916Zm-96.158 72.963c1.898-1.898 4.428-3.164 7.38-3.164 2.953 0 5.483 1.266 7.38 3.164 1.899 1.897 3.164 4.428 3.164 7.38s-1.265 5.483-3.163 7.38c-1.898 1.899-4.428 3.164-7.38 3.164-2.953 0-5.483-1.265-7.381-3.163-1.898-1.898-3.163-4.429-3.163-7.38 0-2.953 1.265-5.484 3.163-7.381Zm-47.236 14.76c-1.898 1.899-4.428 3.164-7.38 3.164-2.953 0-5.483-1.265-7.38-3.163-2.11-1.898-3.164-4.429-3.164-7.38 0-2.953 1.265-5.484 3.163-7.381 1.898-1.898 4.428-3.164 7.38-3.164 2.953 0 5.483 1.266 7.381 3.164 1.898 1.897 3.163 4.428 3.163 7.38-.21 2.952-1.265 5.483-3.163 7.38Z" fill="#128379"/>
</svg>
